X: 42066
T: Waltz Of The Little Girls, The
R: waltz
M: 3/4
K: Dmajor
|:dc BA|F2 FE DE|F2 dc BA|F2 FE DF|G2 GF GA|
B2 BA GF|E2 EF GA|1 B2 BA Bc|BA:|2 Bd/B/ Ac Ac|d2||
|:DF Ad|c2 cB AF|DF BF AF|E2- EA Ec|d2 DF Ad|
c2 cB AF|DF BF AF|E2- EA Ec|d2:|


